public/download.svg

<!DOCTYPE svg PUBLIC "-//W3C//DTD SVG 1.1//EN" "http://www.w3.org/Graphics/SVG/1.1/DTD/svg11.dtd">
<!-- Uploaded to: SVG Repo, www.svgrepo.com, Transformed by: SVG Repo Mixer Tools -->
<svg width="64px" height="64px" viewBox="0 0 24 24" fill="none" xmlns="http://www.w3.org/2000/svg" stroke="#ffffff">
<g id="SVGRepo_bgCarrier" stroke-width="0"/>
<g id="SVGRepo_tracerCarrier" stroke-linecap="round" stroke-linejoin="round"/>
<g id="SVGRepo_iconCarrier"> <path d="M12.5535 16.5061C12.4114 16.6615 12.2106 16.75 12 16.75C11.7894 16.75 11.5886 16.6615 11.4465 16.5061L7.44648 12.1311C7.16698 11.8254 7.18822 11.351 7.49392 11.0715C7.79963 10.792 8.27402 10.8132 8.55352 11.1189L11.25 14.0682V3C11.25 2.58579 11.5858 2.25 12 2.25C12.4142 2.25 12.75 2.58579 12.75 3V14.0682L15.4465 11.1189C15.726 10.8132 16.2004 10.792 16.5061 11.0715C16.8118 11.351 16.833 11.8254 16.5535 12.1311L12.5535 16.5061Z" fill="#ffffff"/> <path d="M3.75 15C3.75 14.5858 3.41422 14.25 3 14.25C2.58579 14.25 2.25 14.5858 2.25 15V15.0549C2.24998 16.4225 2.24996 17.5248 2.36652 18.3918C2.48754 19.2919 2.74643 20.0497 3.34835 20.6516C3.95027 21.2536 4.70814 21.5125 5.60825 21.6335C6.47522 21.75 7.57754 21.75 8.94513 21.75H15.0549C16.4225 21.75 17.5248 21.75 18.3918 21.6335C19.2919 21.5125 20.0497 21.2536 20.6517 20.6516C21.2536 20.0497 21.5125 19.2919 21.6335 18.3918C21.75 17.5248 21.75 16.4225 21.75 15.0549V15C21.75 14.5858 21.4142 14.25 21 14.25C20.5858 14.25 20.25 14.5858 20.25 15C20.25 16.4354 20.2484 17.4365 20.1469 18.1919C20.0482 18.9257 19.8678 19.3142 19.591 19.591C19.3142 19.8678 18.9257 20.0482 18.1919 20.1469C17.4365 20.2484 16.4354 20.25 15 20.25H9C7.56459 20.25 6.56347 20.2484 5.80812 20.1469C5.07435 20.0482 4.68577 19.8678 4.40901 19.591C4.13225 19.3142 3.9518 18.9257 3.85315 18.1919C3.75159 17.4365 3.75 16.4354 3.75 15Z" fill="#ffffff"/> </g>
</svg>

<svg xmlns="http://www.w3.org/2000/svg" width="64" height="64" fill="none" stroke="#fff" viewBox="0 0 24 24"><g fill="#fff"><path d="M12.554 16.506a.75.75 0 0 1-1.107 0l-4-4.375a.75.75 0 0 1 1.107-1.012l2.696 2.95V3a.75.75 0 0 1 1.5 0v11.068l2.697-2.95a.75.75 0 1 1 1.107 1.013z"/><path d="M3.75 15a.75.75 0 0 0-1.5 0v.055c0 1.367 0 2.47.117 3.337.12.9.38 1.658.981 2.26.602.602 1.36.86 2.26.982.867.116 1.97.116 3.337.116h6.11c1.367 0 2.47 0 3.337-.116.9-.122 1.658-.38 2.26-.982s.86-1.36.982-2.26c.116-.867.116-1.97.116-3.337V15a.75.75 0 0 0-1.5 0c0 1.435-.002 2.436-.103 3.192-.099.734-.28 1.122-.556 1.399-.277.277-.665.457-1.4.556-.755.101-1.756.103-3.191.103H9c-1.435 0-2.437-.002-3.192-.103-.734-.099-1.122-.28-1.399-.556-.277-.277-.457-.665-.556-1.4-.101-.755-.103-1.756-.103-3.191Z"/></g></svg>
